X:1
T: Tynemouth Castle
C:
R:Strathspey
Q: 128
K:G
M:4/4
L:1/16
|:B3c|d3e d3B G3A BG3|E3G c3e d4 B3A|G3F G3A B3c d3B|A3^c e3f d4 e3f|
g3e d3B e3d B3A|G3F G3B D4 G3F|E3C EG3 D3G d3B|A3G AB3 G4 B3c|
d8 e4 f4|f3f g3B c3e d3c|G3D E3G B3e dB3|d3B g3B A3c B3A|
G8 D4 G4|F3G A3F G3d BG3|E3C E3G D3G d3B|A3G AB3 G4:|
